X:1
T:Title
%%score ( 1 2 ) ( 3 4 )
L:1/8
M:3/4
K:Eb
V:1 treble nm="Grand Piano, Piano"
V:2 treble 
V:3 bass nm="Grand Piano, Piano"
V:4 bass 
V:1
 z2 z2[Q:1/4=100] z G | [GB]3 [Ac] [GB][EG] | [B,E]4 [B,E]2 | [DF]3 [DF] [CE][DF] |[M:2/4] [EG]4 | %5
[M:1/4] z G |[M:3/4] [GB]3 [Ac] [GB][EG] | z2 z2 E2 | [EG]3 [FA] [EG][DF] | E6 | %10
 [GB]3 [Ac] [GB][EG] | [Ge]6 | [GB]3 [Ac] [GB][EG] | [DF]6 | [GB]3 [Ac] [GB][EG] | %15
 [Ge][Bd] [Ac]2 [Ee]2 | [EG]3 [FA] [EG][DF] |[M:2/4] [B,E]4 |] %18
V:2
 z2 z2 E2 | x6 | x6 | x6 |[M:2/4] x4 |[M:1/4] E2 |[M:3/4] x6 | [B,E]4 z F | x6 | x6 | x6 | x6 | %12
 x6 | x6 | x6 | x6 | x6 |[M:2/4] x4 |] %18
V:3
 z2 z2 G,B, | [E,E]3 [E,E] [E,E][E,B,] | [E,G,]4 [E,G,]2 | [B,,B,]3 [B,,B,] [B,,B,][B,,B,] | %4
w: 1.~I~ *|hear~ the~ Sa vior~|say,~ "Thy~|stength~ in deed~ is~|
[M:2/4] [E,B,]4 |[M:1/4] G,B, |[M:3/4] [E,E]3 [E,E] [E,E][E,B,] | [E,G,]4 [G,B,][A,C] | %8
w: small,~|Child~ of~|weak ness,~ watch~ and~|pray,~ Find~ in~|
 B,3 [B,,B,] [B,,B,][B,,A,] | [E,G,]6 | [E,E]3 [E,E] [E,E][E,B,] | [E,B,]6 | %12
w: Me~ thine~ all~ in~|all."~|||
 [E,E]3 [E,E] [E,E][G,B,] | B,6 | [E,E]3 [E,E] [E,E][E,B,] | [E,B,][G,E] [A,E]2 [=A,C]2 | %16
w: ||||
 B,3 [B,,B,] [B,,B,][B,,A,] |[M:2/4] [E,G,]4 |] %18
w: ||
V:4
 z2 z2 E,2 | x6 | x6 | x6 |[M:2/4] x4 |[M:1/4] E,2 |[M:3/4] x6 | x6 | x6 | x6 | x6 | x6 | x6 | x6 | %14
 x6 | x6 | x6 |[M:2/4] x4 |] %18

